X:630
T:Room For Ramblers
C:Walsh, 1719
M:2/2
L:1/8
S:Colin Hume's website,  colinhume.com  - chords can also be printed below the stave.
Q:1/2=106
K:D
P:A
|: D2 | "D"F2A2 "G"BcdB | "D"AFED "A7"E3D | "D"F2A2 "Bm"d2ef | "Em"e4- "A7"e2de |\
"D"fedB "Bm"d3A | "G"BcdF "A"E3A | "Bm"F2B2 "E7"E2^G2 | "A"A6 :|
P:B
e2 | "A"ecBA "Bm"BcdB | "F#7"^A4 "Bm"B4 | "F#7"c2f2 "/"edcB | "Bm"B4- "/"B2d2 |
"D"dAGF "G"G3A | "Em"BGdB "A"c2 BA | "Bm"d2ef "G"gfed | "A"d4 "/"c3B |\
"D"AFBA "A"GFED | "D"D6 |]

